storage/app/icons/phosphoricons/light/lock-simple-light.svg

<svg xmlns="http://www.w3.org/2000/svg" fill="currentColor" viewBox="0 0 256 256"><path d="M208 82h-34V56a46 46 0 0 0-92 0v26H48a14 14 0 0 0-14 14v112a14 14 0 0 0 14 14h160a14 14 0 0 0 14-14V96a14 14 0 0 0-14-14M94 56a34 34 0 0 1 68 0v26H94Zm116 152a2 2 0 0 1-2 2H48a2 2 0 0 1-2-2V96a2 2 0 0 1 2-2h160a2 2 0 0 1 2 2Z"/></svg>

<svg xmlns="http://www.w3.org/2000/svg" viewBox="0 0 256 256" fill="currentColor"><path d="M208,82H174V56a46,46,0,0,0-92,0V82H48A14,14,0,0,0,34,96V208a14,14,0,0,0,14,14H208a14,14,0,0,0,14-14V96A14,14,0,0,0,208,82ZM94,56a34,34,0,0,1,68,0V82H94ZM210,208a2,2,0,0,1-2,2H48a2,2,0,0,1-2-2V96a2,2,0,0,1,2-2H208a2,2,0,0,1,2,2Z"/></svg>
